X:1
T: Stagger the Buck
C:
R:Jig
Q:180
K:G
M:6/8
L:1/16
D2|:G2B2G2 A2G2E2|c4c2 B4d2|G2B2G2 A2G2E2|E2A2A2 A2G2E2|
G2B2G2 A2G2E2|Bcd2ef g2f2e2|d2B2G2 A2G2E2|D2G2G2 G4D2:|
|:G2g2e2 d2B2G2|c4c2 B4d2|G2g2e2 d2B2G2|E2A2A2 A2G2E2|
G2g2e2 d2B2G2|Bcd2ef g2f2e2|d2B2G2 A2G2E2|1D2G2G2 G4G2:|2D2G2G2  G4||
